X: 2678
T: Bank Of Turf, The
R: jig
M: 6/8
K: Gmajor
|:"G"ded GBd|"C"edB "G"GBd|gfg "D"aga|"G"bab gab|"C"c'bc' c'd'e'|
d'bg efg|1 "Am"aba a2g|"D"fed efg:|2 "D"deg aba|"G"g2g gfg||
|:"D"a2d abc'|"G"b2g bc'd'|"C"c'ba "G"bag|"D"age deg|
a2d abc'|"G"b2g bc'd'|"C"c'ba "G"gfe|1 "D"d2d deg:|2 "D"dBd efg||

